OpenProtest/bin/protest/front/res/reportfile.svg

<svg version="1.1" xmlns="http://www.w3.org/2000/svg" xmlns:xlink="http://www.w3.org/1999/xlink" x="0px" y="0px" width="48px" height="48px" viewBox="0 0 48 48" enable-background="new 0 0 48 48" xml:space="preserve">
<path fill="#202020" d="M39.17,48H8.83c-4.62,0-4.72-0.1-4.72-4.8V8.05L12.03,0h27.14c4.79,0,4.721-0.07,4.721,4.8v38.4 C43.891,47.9,43.92,48,39.17,48z M11.668,39.99H6.663v3.04h5.005V39.99z M41.518,39.99H30.578v3.04h10.939V39.99z M28.613,39.99 h-14.98v3.04h14.98V39.99z M11.668,34.925H6.663v3.04h5.005V34.925z M41.518,34.925H30.578v3.04h10.939V34.925z M28.613,34.925 h-14.98v3.04h14.98V34.925z M11.668,29.92H6.663v3.04h5.005V29.92z M41.518,29.92H30.578v3.04h10.939V29.92z M28.613,29.92h-14.98 v3.04h14.98V29.92z M11.668,24.915H6.663v3.04h5.005V24.915z M41.518,24.915H30.578v3.04h10.939V24.915z M28.613,24.915h-14.98v3.04 h14.98V24.915z M11.668,19.91H6.663v3.04h5.005V19.91z M41.518,19.91H30.578v3.04h10.939V19.91z M28.613,19.91h-14.98v3.04h14.98 V19.91z M11.668,14.905H6.663v3.04h5.005V14.905z M41.518,14.905H30.578v3.04h10.939V14.905z M28.613,14.905h-14.98v3.04h14.98 V14.905z M13.91,9.97V2.44L6.43,9.97H13.91z"/>
</svg>

<svg version="1.1" xmlns="http://www.w3.org/2000/svg" xmlns:xlink="http://www.w3.org/1999/xlink" x="0px" y="0px" width="48px" height="48px" viewBox="0 0 48 48" enable-background="new 0 0 48 48" xml:space="preserve">
<path d="M39.17,48L8.83,48C4.21,48 4.11,47.9 4.11,43.2L4.11,8.05L12.03,0L39.17,0C43.96,0 43.891,-0.07 43.891,4.8L43.891,43.2C43.891,47.9 43.92,48 39.17,48ZM11.668,39.99L6.663,39.99L6.663,43.03L11.668,43.03L11.668,39.99ZM41.518,39.99L30.578,39.99L30.578,43.03L41.518,43.03L41.518,39.99ZM28.613,39.99L13.633,39.99L13.633,43.03L28.613,43.03L28.613,39.99ZM11.668,34.925L6.663,34.925L6.663,37.965L11.668,37.965L11.668,34.925ZM41.518,34.925L30.578,34.925L30.578,37.965L41.518,37.965L41.518,34.925ZM28.613,34.925L13.633,34.925L13.633,37.965L28.613,37.965L28.613,34.925ZM11.668,29.92L6.663,29.92L6.663,32.96L11.668,32.96L11.668,29.92ZM41.518,29.92L30.578,29.92L30.578,32.96L41.518,32.96L41.518,29.92ZM28.613,29.92L13.633,29.92L13.633,32.96L28.613,32.96L28.613,29.92ZM11.668,24.915L6.663,24.915L6.663,27.955L11.668,27.955L11.668,24.915ZM41.518,24.915L30.578,24.915L30.578,27.955L41.518,27.955L41.518,24.915ZM28.613,24.915L13.633,24.915L13.633,27.955L28.613,27.955L28.613,24.915ZM11.668,19.91L6.663,19.91L6.663,22.95L11.668,22.95L11.668,19.91ZM41.518,19.91L30.578,19.91L30.578,22.95L41.518,22.95L41.518,19.91ZM28.613,19.91L13.633,19.91L13.633,22.95L28.613,22.95L28.613,19.91ZM11.668,14.905L6.663,14.905L6.663,17.945L11.668,17.945L11.668,14.905ZM41.518,14.905L30.578,14.905L30.578,17.945L41.518,17.945L41.518,14.905ZM28.613,14.905L13.633,14.905L13.633,17.945L28.613,17.945L28.613,14.905ZM13.91,9.97L13.91,2.44L6.43,9.97L13.91,9.97Z" style="fill:rgb(32,32,32);fill-rule:nonzero;"/>
</svg>
